documentation/public/assets/images/stepper.svg

<svg width="163" height="32" viewBox="0 0 163 32" fill="none" xmlns="http://www.w3.org/2000/svg">
<circle cx="16" cy="16" r="16" fill="#0F67F5"/>
<path d="M17.9233 10.3636V22H15.8153V12.4148H15.7472L13.0256 14.1534V12.2216L15.9176 10.3636H17.9233Z" fill="white"/>
<rect x="32" y="14" width="33.5" height="4" fill="#0F67F5"/>
<circle cx="81.5" cy="16" r="15" fill="white" stroke="#194DCC" stroke-width="2"/>
<path d="M77.5653 22V20.4773L81.6051 16.517C81.9915 16.1269 82.3134 15.7803 82.571 15.4773C82.8286 15.1742 83.0218 14.8807 83.1506 14.5966C83.2794 14.3125 83.3438 14.0095 83.3438 13.6875C83.3438 13.3201 83.2604 13.0057 83.0938 12.7443C82.9271 12.4792 82.6979 12.2746 82.4062 12.1307C82.1146 11.9867 81.7831 11.9148 81.4119 11.9148C81.0294 11.9148 80.6941 11.9943 80.4062 12.1534C80.1184 12.3087 79.8949 12.5303 79.7358 12.8182C79.5805 13.1061 79.5028 13.4489 79.5028 13.8466H77.4972C77.4972 13.108 77.6657 12.4659 78.0028 11.9205C78.34 11.375 78.804 10.9527 79.3949 10.6534C79.9896 10.3542 80.6714 10.2045 81.4403 10.2045C82.2206 10.2045 82.9063 10.3504 83.4972 10.642C84.0881 10.9337 84.5464 11.3333 84.8722 11.8409C85.2017 12.3485 85.3665 12.928 85.3665 13.5795C85.3665 14.0152 85.2831 14.4432 85.1165 14.8636C84.9498 15.2841 84.6563 15.75 84.2358 16.2614C83.8191 16.7727 83.2339 17.392 82.4801 18.1193L80.4744 20.1591V20.2386H85.5426V22H77.5653Z" fill="#194DCC"/>
<rect x="97.5" y="14" width="33.5" height="4" fill="#EEEEEE"/>
<circle cx="147" cy="16" r="16" fill="#EEEEEE"/>
<path d="M146.999 22.1591C146.181 22.1591 145.454 22.0189 144.817 21.7386C144.185 21.4583 143.685 21.0682 143.317 20.5682C142.95 20.0682 142.755 19.4905 142.732 18.8352H144.869C144.888 19.1496 144.992 19.4242 145.181 19.6591C145.371 19.8902 145.622 20.0701 145.937 20.1989C146.251 20.3277 146.603 20.392 146.994 20.392C147.41 20.392 147.78 20.3201 148.102 20.1761C148.424 20.0284 148.675 19.8239 148.857 19.5625C149.039 19.3011 149.128 19 149.124 18.6591C149.128 18.3068 149.037 17.9962 148.852 17.7273C148.666 17.4583 148.397 17.2481 148.045 17.0966C147.696 16.9451 147.276 16.8693 146.783 16.8693H145.755V15.2443H146.783C147.189 15.2443 147.543 15.1742 147.846 15.0341C148.153 14.8939 148.393 14.697 148.567 14.4432C148.742 14.1856 148.827 13.8883 148.823 13.5511C148.827 13.2216 148.753 12.9356 148.602 12.6932C148.454 12.447 148.244 12.2557 147.971 12.1193C147.702 11.983 147.386 11.9148 147.022 11.9148C146.666 11.9148 146.336 11.9792 146.033 12.108C145.73 12.2367 145.486 12.4205 145.3 12.6591C145.115 12.8939 145.016 13.1742 145.005 13.5H142.977C142.992 12.8485 143.179 12.2765 143.539 11.7841C143.903 11.2879 144.388 10.9015 144.994 10.625C145.6 10.3447 146.28 10.2045 147.033 10.2045C147.81 10.2045 148.484 10.3504 149.056 10.642C149.632 10.9299 150.077 11.3182 150.391 11.8068C150.706 12.2955 150.863 12.8352 150.863 13.4261C150.867 14.0814 150.674 14.6307 150.283 15.0739C149.897 15.517 149.389 15.8068 148.761 15.9432V16.0341C149.579 16.1477 150.206 16.4508 150.641 16.9432C151.081 17.4318 151.299 18.0398 151.295 18.767C151.295 19.4186 151.109 20.0019 150.738 20.517C150.371 21.0284 149.863 21.4299 149.215 21.7216C148.571 22.0133 147.833 22.1591 146.999 22.1591Z" fill="#757575"/>
</svg>

<svg width="163" height="32" fill="none" xmlns="http://www.w3.org/2000/svg"><circle cx="16" cy="16" r="16" fill="#0F67F5"/><path d="M17.92 10.36V22h-2.1v-9.59h-.07l-2.72 1.74v-1.93l2.89-1.86h2Z" fill="#fff"/><path fill="#0F67F5" d="M32 14h33.5v4H32z"/><circle cx="81.5" cy="16" r="15" fill="#fff" stroke="#194DCC" stroke-width="2"/><path d="M77.57 22v-1.52l4.04-3.96c.38-.4.7-.74.96-1.04.26-.3.45-.6.58-.88.13-.29.2-.6.2-.91a1.66 1.66 0 0 0-.94-1.56 2.33 2.33 0 0 0-2 .02c-.3.16-.52.38-.67.67a2.1 2.1 0 0 0-.24 1.03h-2a3.41 3.41 0 0 1 1.9-3.2 4.5 4.5 0 0 1 2.04-.45c.78 0 1.47.15 2.06.44.59.3 1.05.7 1.37 1.2.33.5.5 1.09.5 1.74 0 .44-.09.86-.25 1.28-.17.42-.46.89-.88 1.4-.42.51-1 1.13-1.76 1.86l-2 2.04v.08h5.06V22h-7.97Z" fill="#194DCC"/><path fill="#EEE" d="M97.5 14H131v4H97.5z"/><circle cx="147" cy="16" r="16" fill="#EEE"/><path d="M147 22.16c-.82 0-1.55-.14-2.18-.42a3.66 3.66 0 0 1-1.5-1.17 3.04 3.04 0 0 1-.59-1.73h2.14c.02.31.12.58.31.82.2.23.44.41.76.54.31.13.66.2 1.05.2.42 0 .79-.08 1.11-.22.32-.15.58-.36.76-.62.18-.26.27-.56.26-.9 0-.35-.08-.66-.27-.93a1.83 1.83 0 0 0-.8-.63 3.16 3.16 0 0 0-1.27-.23h-1.03v-1.63h1.03c.4 0 .76-.07 1.07-.2.3-.15.54-.34.72-.6.17-.25.26-.55.25-.89a1.5 1.5 0 0 0-.85-1.43 2.5 2.5 0 0 0-1.94-.01c-.3.13-.54.31-.73.55a1.4 1.4 0 0 0-.3.84h-2.02c.01-.65.2-1.22.56-1.72.36-.5.85-.88 1.45-1.15a4.8 4.8 0 0 1 2.04-.43c.78 0 1.45.15 2.03.44a3.3 3.3 0 0 1 1.33 1.17c.32.49.47 1.03.47 1.62 0 .65-.19 1.2-.58 1.64-.38.45-.9.74-1.52.87v.1c.82.1 1.45.41 1.88.9.44.5.66 1.1.66 1.83 0 .65-.2 1.23-.56 1.75-.37.5-.88.91-1.53 1.2-.64.3-1.38.44-2.21.44Z" fill="#757575"/></svg>
